icons/intersection.svg

<svg width="24" height="24" viewBox="0 0 24 24" fill="none" xmlns="http://www.w3.org/2000/svg">
<path fill-rule="evenodd" clip-rule="evenodd" d="M10.7 3.5C10.7 3.08579 10.3642 2.75 9.95001 2.75C9.5358 2.75 9.20001 3.08579 9.20001 3.5V7.40002C9.20001 8.38579 8.33578 9.25 7.34998 9.25H3.45001C3.0358 9.25 2.70001 9.58579 2.70001 10C2.70001 10.4142 3.0358 10.75 3.45001 10.75H7.34998C9.16417 10.75 10.7 9.21426 10.7 7.40002V3.5ZM14.8 3.5C14.8 3.08579 14.4642 2.75 14.05 2.75C13.6358 2.75 13.3 3.08579 13.3 3.5V7.40002C13.3 9.21426 14.8358 10.75 16.65 10.75H20.55C20.9642 10.75 21.3 10.4142 21.3 10C21.3 9.58579 20.9642 9.25 20.55 9.25H16.65C15.6642 9.25 14.8 8.38579 14.8 7.40002V3.5ZM16.65 14.75C15.6642 14.75 14.8 15.6142 14.8 16.6V20.5C14.8 20.9142 14.4642 21.25 14.05 21.25C13.6358 21.25 13.3 20.9142 13.3 20.5V16.6C13.3 14.7858 14.8358 13.25 16.65 13.25H20.55C20.9642 13.25 21.3 13.5858 21.3 14C21.3 14.4142 20.9642 14.75 20.55 14.75H16.65ZM3.45001 13.25C3.0358 13.25 2.70001 13.5858 2.70001 14C2.70001 14.4142 3.0358 14.75 3.45001 14.75H7.34998C8.33577 14.75 9.20001 15.6142 9.20001 16.6V20.5C9.20001 20.9142 9.5358 21.25 9.95001 21.25C10.3642 21.25 10.7 20.9142 10.7 20.5V16.6C10.7 14.7858 9.16418 13.25 7.34998 13.25H3.45001Z" fill="black"/>
</svg>

<svg xmlns="http://www.w3.org/2000/svg" fill="none" viewBox="0 0 24 24">
  <path fill="#000" fill-rule="evenodd" d="M10.7 3.5a.75.75 0 0 0-1.5 0v3.9c0 .986-.864 1.85-1.85 1.85h-3.9a.75.75 0 0 0 0 1.5h3.9c1.814 0 3.35-1.536 3.35-3.35V3.5Zm4.1 0a.75.75 0 0 0-1.5 0v3.9c0 1.814 1.536 3.35 3.35 3.35h3.9a.75.75 0 0 0 0-1.5h-3.9c-.986 0-1.85-.864-1.85-1.85V3.5Zm1.85 11.25c-.986 0-1.85.864-1.85 1.85v3.9a.75.75 0 0 1-1.5 0v-3.9c0-1.814 1.536-3.35 3.35-3.35h3.9a.75.75 0 0 1 0 1.5h-3.9Zm-13.2-1.5a.75.75 0 0 0 0 1.5h3.9c.986 0 1.85.864 1.85 1.85v3.9a.75.75 0 0 0 1.5 0v-3.9c0-1.814-1.536-3.35-3.35-3.35h-3.9Z" clip-rule="evenodd"/>
</svg>
